!!!!SEGMENT: pl-gd--ee-2628--007-002_stabile-annibale--sacrarum-modulationum-ego-sum-panis.krn
!!!cenid: 15xx:1091
!!!COM: Stabile, Annibale
!!!COM-rismID: pe30009662
!!!CDT: ~1535-1595/04
!!!CNT: Italian
!!!GTL: Sacrarum modulationum
!!!OTL: Ego sum panis
!!!OMV: 002
!!!PDT: 1585
!!!AGN:
!!!SMS-siglum: PL-GD
!!!SMS-shelfmark: Ee 2628
!!!SMS-shelfwork: 007-002 G
!!!SMS-variant:
!!!SMS-altvar:
!!!NIFC-rismSourceID: 1001203361
!!!NIFC-rismChildID: 990060529
!!!NIFC-islandoraID: pl-gd:66139
!!!URL-pdf-islandora: https://repozytorium.nifc.pl/islandora/object/pl-gd%3A66139/datastream/PDF/view
!!!URL-scan: https://polish.musicsources.pl/pl/lokalizacje/galeria/klocki-introligatorskie/673 @EN{Scan on Polish Music Sources Website} @PL{Skany w portalu Dziedzictwo Muzyki Polskiej w otwartym dostępie}
!!!IIIF:
!!!ONB-nifc: UWAGA: Cantus: s. 102-113, Tenore: s. 258-269, Basso: s. 414-425, Quinto: s. 736-747, Sextus: s. 624-632. Dla głosu Alto proszę skorzystać z https://pbc.gda.pl/dlibra/publication/87583/edition/79412/content, s. 25-48. Uwaga: utwory podzielone wg spisu treści dostępnych na końcu ksiąg – proszę sprawdzać sąsiednie tytuły i zwracać uwagę na liczbę głosów. Głosy Quinto i Sextus proszę umieszczać wg ambitusu (może się różnić w zależności od utworu).
!!!AIN: 1 alto 1 bass 1 soprn 1 tenor 2 vox
!!!key: C
**kern	**text	**kern	**text	**kern	**kern	**text	**kern	**text	**kern	**text
*part6	*part6	*part5	*part5	*part4	*part3	*part3	*part2	*part2	*part1	*part1
*staff6	*staff6	*staff5	*staff5	*staff4	*staff3	*staff3	*staff2	*staff2	*staff1	*staff1
*I"BASSVS	*	*I"TENOR	*	*I"SEXTVS	*I"QVINTVS	*	*I"ALTVS	*	*I"CANTVS	*
*I'B	*	*I'T	*	*I'V 6	*I'V 5	*	*I'A	*	*I'S	*
*ICvox	*	*ICvox	*	*ICvox	*ICvox	*	*ICvox	*	*ICvox	*
*Ibass	*	*Itenor	*	*Ivox	*Ivox	*	*Ialto	*	*Isoprn	*
*clefF3	*	*clefC3	*	*clefC3	*clefC3	*	*clefC2	*	*clefG2	*
*k[]	*	*k[]	*	*k[]	*k[]	*	*k[]	*	*k[]	*
*C:	*	*C:	*	*C:	*C:	*	*C:	*	*C:	*
*M2/1	*	*M2/1	*	*M2/1	*M2/1	*	*M2/1	*	*M2/1	*
*met(C|)	*	*met(C|)	*	*met(C|)	*met(C|)	*	*met(C|)	*	*met(C|)	*
=1-	=1-	=1-	=1-	=1-	=1-	=1-	=1-	=1-	=1-	=1-
!LO:TX:a:i:t=Prima pars.	!	!LO:TX:a:i:t=Prima pars.	!	!	!LO:TX:a:i:t=Prima pars.	!	!LO:TX:a:i:t=Prima pars.	!	!LO:TX:a:i:t=Prima pars.	!
00r	.	1g	E-	0ryy	0r	.	00r	.	00r	.
*	*	*lig	*	*	*	*	*	*	*	*
.	.	1e	-Go	.	.	.	.	.	.	.
=2-	=2-	=2-	=2-	=2-	=2-	=2-	=2-	=2-	=2-	=2-
.	.	1f	.	0ryy	1r	.	.	.	.	.
*	*	*Xlig	*	*	*	*	*	*	*	*
.	.	2e\	ſum	.	1c	E-	.	.	.	.
.	.	1g\	pa-	.	.	.	.	.	.	.
=3-	=3-	=3-	=3-	=3-	=3-	=3-	=3-	=3-	=3-	=3-
*	*	*	*	*	*lig	*	*	*	*	*
00r	.	.	.	0ryy	1B	-Go	0r	.	00r	.
.	.	2d\	-nis	.	.	.	.	.	.	.
*	*	*lig	*	*	*	*	*	*	*	*
.	.	1e	vi-	.	1c	.	.	.	.	.
*	*	*	*	*	*Xlig	*	*	*	*	*
=4-	=4-	=4-	=4-	=4-	=4-	=4-	=4-	=4-	=4-	=4-
*	*	*col	*	*	*	*	*	*	*	*
.	.	2.f\	.	0ryy	2A/	ſum	1cc	E-	.	.
.	.	.	.	.	1a	pa-	.	.	.	.
*	*	*Xlig	*	*	*	*	*	*	*	*
.	.	4e\	.	.	.	.	.	.	.	.
*	*	*Xcol	*	*	*	*	*lig	*	*	*
.	.	2d\	.	.	.	.	1b	-Go	.	.
.	.	2e\	.	.	2g#X\	-nis	.	.	.	.
=5-	=5-	=5-	=5-	=5-	=5-	=5-	=5-	=5-	=5-	=5-
00r	.	1A	-tæ	0ryy	2a\	vi-	1cc	.	0r	.
.	.	.	.	.	1f	.	.	.	.	.
*	*	*	*	*	*	*	*Xlig	*	*	*
.	.	0r	.	.	.	.	2a\	ſum	.	.
.	.	.	.	.	4e\	.	1cc\	pa-	.	.
.	.	.	.	.	4d\	.	.	.	.	.
=6-	=6-	=6-	=6-	=6-	=6-	=6-	=6-	=6-	=6-	=6-
.	.	.	.	0ryy	2.e\	.	.	.	1gg	E-
.	.	.	.	.	.	.	2g\	-nis	.	.
.	.	.	.	.	4d\	.	.	.	.	.
*	*	*	*ij	*	*	*	*	*	*lig	*
.	.	2r	.	.	2c/	.	1a	vi-	1ee	-Go
.	.	1a\	E-	.	2A/	.	.	.	.	.
=7-	=7-	=7-	=7-	=7-	=7-	=7-	=7-	=7-	=7-	=7-
1r	.	.	.	0ryy	1d	.	4f\	-tæ	1ff	.
.	.	.	.	.	.	.	4g\	.	.	.
.	.	2f\	-Go	.	.	.	4a\	.	.	.
.	.	.	.	.	.	.	4b\	.	.	.
*	*	*	*	*	*	*	*	*	*Xlig	*
1c	E-	2g\	ſum	.	4c/	-tæ	1cc	.	2ee\	ſum
.	.	.	.	.	4d\	.	.	.	.	.
.	.	2g\	pa-	.	4e\	.	.	.	1gg\	pa-
.	.	.	.	.	4f\	.	.	.	.	.
=8-	=8-	=8-	=8-	=8-	=8-	=8-	=8-	=8-	=8-	=8-
*lig	*	*	*	*	*	*	*	*	*	*
1B	-Go	2d\	-nis	0ryy	1gny	.	1r	.	.	.
.	.	1g	vi-	.	.	.	.	.	2dd\	-nis
*	*	*	*	*	*	*	*	*ij	*	*
1c	.	.	.	.	0r	.	2r	.	1ee	vi-
.	.	2e\	-tæ	.	.	.	2g\	E-	.	.
*Xlig	*	*custos:c	*Xij	*	*custos:g	*	*	*	*	*
!	!	!LO:LB:g=original	!	!	!LO:LB:g=original	!	!	!	!	!
=9-	=9-	=9-	=9-	=9-	=9-	=9-	=9-	=9-	=9-	=9-
2A\	ſum	00r	.	0ryy	.	.	2a\	-Go	2cc\	-tæ
1c	pa-	.	.	.	.	.	2g\	ſum	1ee	pa-
.	.	.	.	.	1g	.	2cc\	pa-	.	.
2G\	-nis	.	.	.	.	.	2b\	-nis	2dd\	-nis
=10-	=10-	=10-	=10-	=10-	=10-	=10-	=10-	=10-	=10-	=10-
*lig	*	*	*	*	*lig	*	*	*	*	*
1A	vi-	.	.	0ryy	1e	.	0a	vi-	4cc\	vi-
.	.	.	.	.	.	.	.	.	4dd\	.
.	.	.	.	.	.	.	.	.	4ee\	.
.	.	.	.	.	.	.	.	.	4cc\	.
1F	.	.	.	.	1f	.	.	.	2dd\	.
.	.	.	.	.	.	.	.	.	1cc\	.
*Xlig	*	*	*	*	*Xlig	*	*	*	*	*
=11-	=11-	=11-	=11-	=11-	=11-	=11-	=11-	=11-	=11-	=11-
0G	-tæ	0r	.	0ryy	2d\	.	2g\	-tæ	.	.
*	*	*	*	*	*	*	*	*Xij	*	*
.	.	.	.	.	1g	.	1d	E-	4b/	.
.	.	.	.	.	.	.	.	.	4a/	.
.	.	.	.	.	.	.	.	.	1b	.
.	.	.	.	.	2d\	.	2g\	-go	.	.
*	*	*	*	*	*	*	*custos:g	*	*custos:cc	*
!	!	!	!	!	!	!	!LO:LB:g=original	!	!LO:LB:g=original	!
=12-	=12-	=12-	=12-	=12-	=12-	=12-	=12-	=12-	=12-	=12-
1r	.	1c	E-	0ryy	1e	.	1g	ſum	2cc\	-ta
*	*	*	*	*	*	*	*	*	*	*ij
.	.	.	.	.	.	.	.	.	1gg	pa-
*	*ij	*lig	*	*	*	*	*	*ij	*	*
1G	E-	1B	-go	.	1d	.	2r	.	.	.
.	.	.	.	.	.	.	1g\	E-	2dd\	-nis
=13-	=13-	=13-	=13-	=13-	=13-	=13-	=13-	=13-	=13-	=13-
*lig	*	*	*	*	*	*	*	*	*	*
1E	-Go	1c	.	0ryy	2r	.	.	.	1ee	vi-
.	.	.	.	.	2g\	E-	2e/	-go	.	.
*	*	*Xlig	*	*	*	*	*	*	*	*
1F	.	2A/	ſum	.	2f\	-go	1a	ſum	1cc	-ta
*	*	*	*ij	*	*	*	*	*	*	*
.	.	1f\	E-	.	2c/	ſum	.	.	.	.
*Xlig	*	*	*	*	*	*	*	*Xij	*	*Xij
=14-	=14-	=14-	=14-	=14-	=14-	=14-	=14-	=14-	=14-	=14-
2D/	ſum	.	.	0ryy	2d\	pa-	2.a\	pa-	00r	.
1A	pa-	2e\	-go	.	4c/	.	.	.	.	.
.	.	.	.	.	4B/	.	4b\	.	.	.
.	.	1e	ſum	.	2A/	.	2cc\	.	.	.
2G\	-nis	.	.	.	2B/	-nis	2b\	-nis	.	.
=15-	=15-	=15-	=15-	=15-	=15-	=15-	=15-	=15-	=15-	=15-
*	*	*	*Xij	*	*lig	*	*	*	*	*
2.F/	vi-	2A/	pa-	0ryy	1c	vi-	2.a\	vi-	.	.
.	.	1c	-nis	.	.	.	.	.	.	.
4E/	.	.	.	.	.	.	4g\	.	.	.
*custos:D	*	*	*	*	*	*	*	*	*	*
!LO:LB:g=original	!	!	!	!	!	!	!	!	!	!
1D	.	.	.	.	1d	.	1f	.	.	.
.	.	2B/	vi-	.	.	.	.	.	.	.
*	*	*	*	*	*Xlig	*	*	*	*	*
=16-	=16-	=16-	=16-	=16-	=16-	=16-	=16-	=16-	=16-	=16-
1C	-tæ	2c/	-tæ	0ryy	1G	-tæ	2e/	-tæ	2r	.
.	.	2c/	Pa-	.	.	.	1cc	Pa-	1ee	Pa-
1r	.	2e\	-tres	.	1r	.	.	.	.	.
.	.	2.g\	ve-	.	.	.	2b\	-tres	2dd\	-tres
*	*Xij	*	*	*	*	*	*	*	*	*
=17-	=17-	=17-	=17-	=17-	=17-	=17-	=17-	=17-	=17-	=17-
2r	.	.	.	0ryy	1c	Pa-	1cc	ve-	1.ee	ve-
.	.	4f\	.	.	.	.	.	.	.	.
1c	Pa-	4e\	.	.	.	.	.	.	.	.
.	.	4d\	.	.	.	.	.	.	.	.
*	*	*	*	*	*custos:e	*	*	*	*	*
!	!	!	!	!	!LO:LB:g=original	!	!	!	!	!
.	.	2c/	.	.	2e\	-tres	1g	-ſtri	.	.
2B\	-tres	2d\	.	.	2.g\	ve-	.	.	2dd\	-ſtri
=18-	=18-	=18-	=18-	=18-	=18-	=18-	=18-	=18-	=18-	=18-
2.c\	ve-	1e	-ſtri	0ryy	.	.	2r	.	2r	.
.	.	.	.	.	4f\	.	.	.	.	.
*	*	*	*ij	*	*	*	*	*ij	*	*
.	.	.	.	.	4e\	.	1cc	Pa-	2cc\	Pa-
4B\	.	.	.	.	4d\	.	.	.	.	.
2A\	.	1r	.	.	2c/	.	.	.	2ee\	-tres
2G\	.	.	.	.	2d\	.	2b\	-tres	2.gg\	ve-
=19-	=19-	=19-	=19-	=19-	=19-	=19-	=19-	=19-	=19-	=19-
1C	-ſtri	1c	Pa-	0ryy	2e\	-ſtri	2.cc\	ve-	.	.
.	.	.	.	.	.	.	.	.	4ff\	.
*	*	*	*	*	*	*ij	*	*	*	*
.	.	.	.	.	1c	Pa-	.	.	4ee\	.
.	.	.	.	.	.	.	8b\	.	4dd\	.
.	.	.	.	.	.	.	8a\	.	.	.
*	*	*custos:e	*	*	*	*	*custos:g	*	*	*
!	!	!LO:LB:g=original	!	!	!	!	!LO:LB:g=original	!	!	!
1r	.	2e\	-tres	.	.	.	2g\	.	2cc\	.
.	.	2.g\	ve-	.	2B/	-tres	2G/	-ſtri	2dd\	.
=20-	=20-	=20-	=20-	=20-	=20-	=20-	=20-	=20-	=20-	=20-
2r	.	.	.	0ryy	2.c/	ve-	2r	.	2ee\	-ſtri
.	.	4f\	.	.	.	.	.	.	.	.
*	*ij	*	*	*	*	*	*	*Xij	*custos:ee	*ij
!	!	!	!	!	!	!	!	!	!LO:LB:g=original	!
1C	Pa-	4e\	.	.	.	.	2c/	Pa-	1ee	Pa-
.	.	4d\	.	.	8B/	.	.	.	.	.
.	.	.	.	.	8A/	.	.	.	.	.
.	.	2c/	.	.	1G	.	2e/	-tres	.	.
2BB/	-tres	2d\	.	.	.	.	2.g\	ve-	2dd\	-tres
=21-	=21-	=21-	=21-	=21-	=21-	=21-	=21-	=21-	=21-	=21-
2.C/	ve-	2.e\	.	0ryy	00G	-ſtri	.	.	2cc\	.
.	.	.	.	.	.	.	4f\	.	.	.
*	*	*	*	*	*	*Xij	*	*	*lig	*
.	.	.	.	.	.	.	4e/	.	1ee	ve-
4D/	.	4f\	.	.	.	.	4d/	.	.	.
4E/	.	00g	-ſtri	.	.	.	2c/	.	.	.
4F/	.	.	.	.	.	.	.	.	.	.
*	*	*	*Xij	*	*	*	*	*	*col	*
2G\	.	.	.	.	.	.	2B/	-ſtri	2.dd\	.
*	*	*	*	*	*	*	*	*	*Xlig	*
*custos:C	*	*	*	*	*	*	*	*	*	*
!LO:LB:g=original	!	!	!	!	!	!	!	!	!	!
=22-	=22-	=22-	=22-	=22-	=22-	=22-	=22-	=22-	=22-	=22-
1C	-ſtri	.	.	0ryy	.	.	2c/	man-	.	.
.	.	.	.	.	.	.	.	.	4cc\	.
*	*Xij	*	*	*	*	*	*	*	*Xcol	*
.	.	.	.	.	.	.	4c/	-du-	1cc	.
.	.	.	.	.	.	.	4c/	-ca-	.	.
1r	.	.	.	.	.	.	2d/	-ue-	.	.
.	.	.	.	.	.	.	2d/	-runt	2b/	.
=23-	=23-	=23-	=23-	=23-	=23-	=23-	=23-	=23-	=23-	=23-
2c\	man-	.	.	0ryy	1r	.	2e/	man-	1cc	-ſtri
4c\	-du-	.	.	.	.	.	2c/	-na	.	.
4c\	-ca-	.	.	.	.	.	.	.	.	.
!	!	!LO:TX:t=P:problem:Verovio nie wyświetla pauzy	!	!	!	!	!	!	!	!
2B\	-ue-	1r	.	.	2g\	man-	1r	.	1r	.
2B\	-runt	.	.	.	4g\	-du-	.	.	.	.
.	.	.	.	.	4g\	-ca-	.	.	.	.
*	*	*	*	*	*	*	*	*ij	*	*Xij
=24-	=24-	=24-	=24-	=24-	=24-	=24-	=24-	=24-	=24-	=24-
2A\	man-	2a\	man-	0ryy	2f\	-ue-	2cc\	man-	0r	.
2A\	-na	4a\	-du-	.	2e\	-runt	4cc\	-du-	.	.
.	.	4a\	-ca-	.	.	.	4cc\	-ca-	.	.
2E/	in	2g\	-ue-	.	2e\	man-	2b\	-ue-	.	.
2G\	de-	2g\	-runt	.	2d\	-na	2b\	-runt	.	.
=25-	=25-	=25-	=25-	=25-	=25-	=25-	=25-	=25-	=25-	=25-
1F	-ſer-	1a	man-	0ryy	1r	.	2.cc\	man-	2ff\	man-
.	.	.	.	.	.	.	.	.	4ff\	-du-
.	.	.	.	.	.	.	4cc\	-na	4ff\	-ca-
*	*	*	*	*	*	*ij	*	*Xij	*	*
1C	-to	0g	-na	.	2c/	man-	2cc\	in	2ee\	-ue-
.	.	.	.	.	4c/	-du-	2c/	de-	2ee\	-runt
.	.	.	.	.	4c/	-ca-	.	.	.	.
=26-	=26-	=26-	=26-	=26-	=26-	=26-	=26-	=26-	=26-	=26-
2G\	man-	.	.	0ryy	2B/	-ue-	1d	-ſer-	2dd\	man-
4G\	-du-	.	.	.	2B/	-runt	.	.	2b/	-na
4G\	-ca-	.	.	.	.	.	.	.	.	.
*	*	*	*	*	*custos:A	*	*	*	*	*
!	!	!	!	!	!LO:LB:g=original	!	!	!	!	!
*	*	*	*ij	*	*	*	*	*	*	*
2F/	-ue-	2a\	man-	.	2.A/	man-	1f	-to	2cc\	in
2F/	-runt	4a\	-du-	.	.	.	.	.	2dd\	de-
.	.	4a\	-ca-	.	4A/	-na	.	.	.	.
*	*	*	*	*	*	*Xij	*custos:f	*	*	*
!	!	!	!	!	!	!	!LO:LB:g=original	!	!	!
=27-	=27-	=27-	=27-	=27-	=27-	=27-	=27-	=27-	=27-	=27-
*	*	*	*	*	*	*	*	*	*lig	*
2E/	man-	2g\	-ue-	0ryy	2B/	in	0r	.	1ee	-ſer-
2C/	-na	2g\	-runt	.	2c/	de-	.	.	.	.
4D/	in	2f\	man-	.	0A	-ſer-	.	.	1dd	.
4E/	.	.	.	.	.	.	.	.	.	.
4F/	.	2f\	-na	.	.	.	.	.	.	.
4G\	.	.	.	.	.	.	.	.	.	.
*custos:A	*	*	*Xij	*	*	*	*	*	*Xlig	*
!LO:LB:g=original	!	!	!	!	!	!	!	!	!	!
=28-	=28-	=28-	=28-	=28-	=28-	=28-	=28-	=28-	=28-	=28-
4A\	.	2e\	in	0ryy	.	.	1r	.	1cc	-to
4B\	.	.	.	.	.	.	.	.	.	.
1c	.	2c/	de-	.	.	.	.	.	.	.
.	.	1d	-ſer-	.	1G	-to	2g\	man-	1r	.
2B\	de-	.	.	.	.	.	4g\	-du-	.	.
.	.	.	.	.	.	.	4g\	-ca-	.	.
*	*	*custos:c	*	*	*	*	*	*	*	*
!	!	!LO:LB:g=original	!	!	!	!	!	!	!	!
=29-	=29-	=29-	=29-	=29-	=29-	=29-	=29-	=29-	=29-	=29-
1A	-ſer-	1c	-to	0ryy	1r	.	2f\	-ue-	2cc\	man-
.	.	.	.	.	.	.	1e	-runt	4cc\	-du-
.	.	.	.	.	.	.	.	.	4cc\	-ca-
1G	-to	1r	.	.	2g\	man-	.	.	2b/	-ue-
.	.	.	.	.	4g\	-du-	2d/	man-	2b/	-runt
.	.	.	.	.	4g\	-ca-	.	.	.	.
*	*	*	*	*	*	*	*	*	*custos:a	*
!	!	!	!	!	!	!	!	!	!LO:LB:g=original	!
=30-	=30-	=30-	=30-	=30-	=30-	=30-	=30-	=30-	=30-	=30-
0r	.	00r	.	0ryy	2f\	-ue-	2d/	-na	4a/	man-
.	.	.	.	.	.	.	.	.	4b/	.
.	.	.	.	.	2f\	-runt	2.a\	in	4cc\	.
.	.	.	.	.	.	.	.	.	4a/	.
.	.	.	.	.	2e\	man-	.	.	2.b/	.
.	.	.	.	.	.	.	4g\	de-	.	.
.	.	.	.	.	2e\	-na	1g\	-ſer-	.	.
.	.	.	.	.	.	.	.	.	8a/	.
.	.	.	.	.	.	.	.	.	8g/	.
=31-	=31-	=31-	=31-	=31-	=31-	=31-	=31-	=31-	=31-	=31-
1r	.	.	.	0ryy	1d	in	.	.	1a	.
.	.	.	.	.	.	.	2f#X\	.	.	.
2r	.	.	.	.	2G/	de-	2g\	-to	1b	-na
2G\	[et]	.	.	.	2.d\	-ſer-	2g\	[et]	.	.
=32-	=32-	=32-	=32-	=32-	=32-	=32-	=32-	=32-	=32-	=32-
2.C/	mor-	0r	.	0ryy	.	.	2.e/	mor-	2cc\	in
.	.	.	.	.	4c/	.	.	.	.	.
.	.	.	.	.	1c	.	.	.	2cc\	de-
4E/	-tu-	.	.	.	.	.	4g\	-tu-	.	.
1D	-i	.	.	.	.	.	1fny	-i	1dd	-ſer-
.	.	.	.	.	2B/	.	.	.	.	.
=33-	=33-	=33-	=33-	=33-	=33-	=33-	=33-	=33-	=33-	=33-
1C	ſunt	2r	.	0ryy	2c/	-to	2e/	ſunt	2g/	-to
*	*	*	*	*	*	*	*	*ij	*	*
.	.	2c/	[et]	.	1e	[et]	2g\	[et]	2cc\	[et]
0r	.	2.G/	mor-	.	.	.	2.g\	mor-	2.b/	mor-
.	.	.	.	.	2.g\	mor-	.	.	.	.
.	.	4B/	-tu-	.	.	.	4g\	-tu-	4dd\	-tu-
=34-	=34-	=34-	=34-	=34-	=34-	=34-	=34-	=34-	=34-	=34-
.	.	1A	-i	0ryy	.	.	1c	-i	1cc	-i
.	.	.	.	.	4g\	-tu-	.	.	.	.
.	.	.	.	.	2f\	-i	.	.	.	.
2r	.	2G/	ſunt	.	1g	ſunt	1d	ſunt	1b	ſunt
2G\	Qui	2g\	Qui	.	.	.	.	.	.	.
=35-	=35-	=35-	=35-	=35-	=35-	=35-	=35-	=35-	=35-	=35-
2A\	man-	2f\	man-	0ryy	1r	.	00r	.	1r	.
2c\	-du-	2e\	-du-	.	.	.	.	.	.	.
2B\	-cat	2d\	-cat	.	2r	.	.	.	2r	.
2c\	hunc	2e\	hunc	.	2g\	Qui	.	.	2g/	Qui
*	*	*	*	*	*custos:f	*	*	*Xij	*	*
!	!	!	!	!	!LO:LB:g=original	!	!	!	!	!
=36-	=36-	=36-	=36-	=36-	=36-	=36-	=36-	=36-	=36-	=36-
1A	pa-	1c	pa-	0ryy	2f\	man-	.	.	2a/	man-
.	.	.	.	.	2.e\	-du-	.	.	2cc\	-du-
2G\	-nem	1g	-nem	.	.	.	.	.	2b/	-cat
.	.	.	.	.	4d\	-cat	.	.	.	.
2E/	hunc	.	.	.	2e\	hunc	.	.	2cc\	hunc
=37-	=37-	=37-	=37-	=37-	=37-	=37-	=37-	=37-	=37-	=37-
1F	pa-	2r	.	0ryy	1c	pa-	1r	.	1a	pa-
*	*	*	*ij	*	*	*	*	*	*	*
.	.	1f	Qui	.	.	.	.	.	.	.
*	*	*	*	*	*	*	*	*	*custos:g	*
!	!	!	!	!	!	!	!	!	!LO:LB:g=original	!
1C	-nem	.	.	.	1c	-nem	2r	.	2g/	-nẽ(m)
*	*	*	*	*	*	*	*	*	*	*ij
.	.	2e\	man-	.	.	.	2g\	Qui	2gg\	Qui
=38-	=38-	=38-	=38-	=38-	=38-	=38-	=38-	=38-	=38-	=38-
0r	.	2d\	-du-	0ryy	0r	.	2a\	man-	2ff\	man-
.	.	2c/	-cat	.	.	.	2cc\	-du-	2ee\	-du-
*	*	*	*	*	*	*	*custos:b	*	*	*
!	!	!	!	!	!	!	!LO:LB:g=original	!	!	!
.	.	2g\	hunc	.	.	.	2b\	-cat	2dd\	-cat
.	.	1e\	pa-	.	.	.	2cc\	hũ(n)c	2ee\	hunc
*custos:A	*	*	*	*	*	*	*	*	*	*
!LO:LB:g=original	!	!	!	!	!	!	!	!	!	!
=39-	=39-	=39-	=39-	=39-	=39-	=39-	=39-	=39-	=39-	=39-
1A	vi-	.	.	0ryy	2r	.	2.a\	pa-	2.cc\	pa-
.	.	2e\	-nem	.	1a	vi-	.	.	.	.
.	.	.	.	.	.	.	4b\	.	4dd\	.
*	*	*	*Xij	*	*	*	*	*	*	*
1E	-uet	2.e\	vi-	.	.	.	2cc\	.	1ee	.
.	.	.	.	.	2g\	-uet	2b\	-nem	.	.
.	.	4d\	.	.	.	.	.	.	.	.
=40-	=40-	=40-	=40-	=40-	=40-	=40-	=40-	=40-	=40-	=40-
2F/	in	1c	.	0ryy	2f\	in	1r	.	2a/	-nẽ(m)
*	*	*	*	*	*	*	*	*	*	*Xij
2C/	æ-	.	.	.	2e\	æ-	.	.	1ee	vi-
*	*	*custos:A	*	*	*	*	*	*	*	*
!	!	!LO:LB:g=original	!	!	!	!	!	!	!	!
1D	-ter-	1A	-uet	.	1f	-ter-	2r	.	.	.
.	.	.	.	.	.	.	1a\	vi-	2dd\	-uet
=41-	=41-	=41-	=41-	=41-	=41-	=41-	=41-	=41-	=41-	=41-
1E	-num	1r	.	0ryy	1e	-num	.	.	2cc\	in
.	.	.	.	.	.	.	2g\	-uet	2b/	æ-
2r	.	2r	.	.	2r	.	2f\	in	2.cc\	-ter-
*	*ij	*	*	*	*	*	*	*	*	*
1C/	vi-	1e\	vi-	.	1g\	vi-	2e/	æ-	.	.
.	.	.	.	.	.	.	.	.	4b/	.
=42-	=42-	=42-	=42-	=42-	=42-	=42-	=42-	=42-	=42-	=42-
.	.	.	.	0ryy	.	.	2c/	-ter-	1a	.
2D/	-uet	2d\	-uet	.	2f\	-uet	2A/	-num	.	.
2.E/	in	2B/	in	.	2e\	in	1r	.	0g	-num
.	.	1c\	æ-	.	2e\	æ-	.	.	.	.
4F/	æ-	.	.	.	.	.	.	.	.	.
=43-	=43-	=43-	=43-	=43-	=43-	=43-	=43-	=43-	=43-	=43-
0G	-ter-	.	.	0ryy	0d	-ter-	0r	.	.	.
.	.	4B/	-ter-	.	.	.	.	.	.	.
.	.	4A/	.	.	.	.	.	.	.	.
.	.	1B	.	.	.	.	.	.	2r	.
.	.	.	.	.	.	.	.	.	2d/	[et]
=44-	=44-	=44-	=44-	=44-	=44-	=44-	=44-	=44-	=44-	=44-
0C	-num	0c	-num	0ryy	0e	-num	1r	.	1g	pa-
.	.	.	.	.	.	.	2r	.	2g/	-nis
.	.	.	.	.	.	.	2c/	[et]	2g/	quẽ(m)
*	*Xij	*	*	*	*	*	*	*	*	*
=45-	=45-	=45-	=45-	=45-	=45-	=45-	=45-	=45-	=45-	=45-
1r	.	00r	.	0ryy	0r	.	1.g	pa-	2.b/	e-
.	.	.	.	.	.	.	.	.	4cc\	.
2r	.	.	.	.	.	.	.	.	4dd\	.
.	.	.	.	.	.	.	.	.	4ee\	.
2D/	[et]	.	.	.	.	.	2f#X\	-nis	1dd\	.
=46-	=46-	=46-	=46-	=46-	=46-	=46-	=46-	=46-	=46-	=46-
1G	pa-	.	.	0ryy	2r	.	1g	quem	.	.
.	.	.	.	.	2G/	[et]	.	.	4cc\	.
.	.	.	.	.	.	.	.	.	4b/	.
*	*	*	*	*	*	*	*	*	*custos:a	*
!	!	!	!	!	!	!	!	!	!LO:LB:g=original	!
2F#X/	-nis	.	.	.	1d	pa-	2a\	e-	2a/	.
2G\	quem	.	.	.	.	.	1g\	-go	2.b/	-go
=47-	=47-	=47-	=47-	=47-	=47-	=47-	=47-	=47-	=47-	=47-
2D/	e-	0r	.	0ryy	2d\	-nis	.	.	.	.
.	.	.	.	.	.	.	.	.	4a/	.
2D/	-go	.	.	.	2d\	quem	2fny\	da-	2.dd\	.
1A	da-	.	.	.	2.e\	e-	2e/	-bo	.	.
.	.	.	.	.	.	.	.	.	4cc\	.
.	.	.	.	.	.	.	2c/	[et]	1cc\	da-
.	.	.	.	.	4f\	.	.	.	.	.
*	*	*	*	*	*custos:g	*	*	*	*	*
!	!	!	!	!	!LO:LB:g=original	!	!	!	!	!
=48-	=48-	=48-	=48-	=48-	=48-	=48-	=48-	=48-	=48-	=48-
1G	-bo	2r	.	0ryy	4g\	.	1d	pa-	.	.
.	.	.	.	.	4a\	.	.	.	.	.
.	.	2G/	[et]	.	1g	.	.	.	2b/	.
1r	.	1c	pa-	.	.	.	2e/	-nis	1cc	-bo
.	.	.	.	.	4f\	.	2g\	quem	.	.
.	.	.	.	.	4e\	.	.	.	.	.
*	*	*	*	*	*	*	*custos:g	*	*	*ij
!	!	!	!	!	!	!	!LO:LB:g=original	!	!	!
=49-	=49-	=49-	=49-	=49-	=49-	=49-	=49-	=49-	=49-	=49-
0r	.	2B/	-nis	0ryy	2d\	.	1.g	e-	1r	.
.	.	2c/	quem	.	2.e\	-go	.	.	.	.
.	.	2G/	e-	.	.	.	.	.	2r	.
.	.	.	.	.	4d\	.	.	.	.	.
.	.	2B/	-go	.	1g\	.	2d/	-go	2g/	[et]
=50-	=50-	=50-	=50-	=50-	=50-	=50-	=50-	=50-	=50-	=50-
1r	.	1A	da-	0ryy	.	.	2e/	da-	1cc	pa-
.	.	.	.	.	2f\	da-	4d/	.	.	.
.	.	.	.	.	.	.	4c/	.	.	.
*custos:C	*	*	*	*	*	*	*	*	*	*
!LO:LB:g=original	!	!	!	!	!	!	!	!	!	!
2r	.	1G	-bo	.	1g	-bo	2d/	.	2b/	-nis
2C/	quem	.	.	.	.	.	2.e/	.	2cc\	quẽ(m)
=51-	=51-	=51-	=51-	=51-	=51-	=51-	=51-	=51-	=51-	=51-
2E/	e-	2r	.	0ryy	00r	.	.	.	2g/	e-
.	.	.	.	.	.	.	8d/	.	.	.
.	.	.	.	.	.	.	8c/	.	.	.
2G\	-go	2G/	[et]	.	.	.	4d/	.	2b/	-go
.	.	.	.	.	.	.	4e/	.	.	.
1Fny	da-	1c	pa-	.	.	.	1f	.	1a	da-
=52-	=52-	=52-	=52-	=52-	=52-	=52-	=52-	=52-	=52-	=52-
2C/	-bo	2c/	-nis	0ryy	.	.	1e	-bo	0g	-bo
2C/	[et]	2c/	quem	.	.	.	.	.	.	.
1c	pa-	2.e\	e-	.	.	.	2r	.	.	.
*	*	*	*	*	*	*	*	*ij	*	*
.	.	.	.	.	.	.	1e\	[et]	.	.
.	.	4f\	.	.	.	.	.	.	.	.
*	*	*custos:g	*	*	*	*	*	*	*	*Xij
!	!	!LO:LB:g=original	!	!	!	!	!	!	!	!
=53-	=53-	=53-	=53-	=53-	=53-	=53-	=53-	=53-	=53-	=53-
2c\	-nis	4g\	.	0ryy	2r	.	.	.	0r	.
.	.	4a\	.	.	.	.	.	.	.	.
2B\	quem	1g	.	.	2G/	[et]	2d/	pa-	.	.
2c\	e-	.	.	.	1c	pa-	2e/	-nis	.	.
2C/	-go	4f\	.	.	.	.	2g\	quem	.	.
.	.	4e\	.	.	.	.	.	.	.	.
=54-	=54-	=54-	=54-	=54-	=54-	=54-	=54-	=54-	=54-	=54-
2G\	da-	2d\	.	0ryy	2B/	-nis	1.g	e-	1r	.
2C/	-bo	2.e\	-go	.	2c/	quem	.	.	.	.
1r	.	.	.	.	2G/	e-	.	.	2r	.
.	.	4d\	.	.	.	.	.	.	.	.
.	.	1g\	.	.	2B/	-go	2d/	-go	1dd\	ca-
=55-	=55-	=55-	=55-	=55-	=55-	=55-	=55-	=55-	=55-	=55-
1D	ca-	.	.	0ryy	1A	da-	1d	da-	.	.
.	.	2f\	da-	.	.	.	.	.	2dd\	-ro
1G	-ro	1g	-bo	.	0G	-bo	2d/	-bo	4b/	me-
.	.	.	.	.	.	.	.	.	4cc\	.
*	*	*	*	*	*	*	*	*Xij	*	*
.	.	.	.	.	.	.	2d/	ca-	4dd\	.
.	.	.	.	.	.	.	.	.	4b/	.
=56-	=56-	=56-	=56-	=56-	=56-	=56-	=56-	=56-	=56-	=56-
2C/	me-	0r	.	0ryy	.	.	2e/	-ro	4cc\	.
.	.	.	.	.	.	.	.	.	4b/	.
2E/	-a	.	.	.	.	.	1g	me-	4b/	.
.	.	.	.	.	.	.	.	.	8a/	.
.	.	.	.	.	.	.	.	.	8g/	.
*lig	*	*	*	*	*	*	*	*	*custos:a	*
!	!	!	!	!	!	!	!	!	!LO:LB:g=original	!
1D	eſt	.	.	.	2r	.	.	.	2a/	.
.	.	.	.	.	1d\	ca-	2f#X\	-a	2a/	-a
=57-	=57-	=57-	=57-	=57-	=57-	=57-	=57-	=57-	=57-	=57-
1G	.	2r	.	0ryy	.	.	2g\	eſt	2g/	eſt
*	*	*	*	*	*	*	*	*ij	*	*ij
.	.	2G/	ca-	.	2d\	-ro	1g	ca-	2b/	ca-
*Xlig	*	*	*	*	*	*	*	*	*	*
1r	.	1c	-ro	.	4e\	me-	.	.	2cc\	-ro
.	.	.	.	.	4f\	.	.	.	.	.
.	.	.	.	.	4g\	.	2g\	-ro	2ee\	me-
.	.	.	.	.	4e\	.	.	.	.	.
=58-	=58-	=58-	=58-	=58-	=58-	=58-	=58-	=58-	=58-	=58-
0r	.	2F/	me-	0ryy	4f\	.	2a\	me-	4dd\	.
.	.	.	.	.	4e\	.	.	.	4cc\	.
.	.	2A/	-a	.	4d\	.	2fny\	-a	1cc	.
.	.	.	.	.	4c/	.	.	.	.	.
*	*	*	*	*	*custos:d	*	*	*	*	*
!	!	!	!	!	!LO:LB:g=original	!	!	!	!	!
.	.	1G	eſt	.	2d\	.	2g\	eſt	.	.
*	*	*	*	*	*	*	*	*Xij	*	*
.	.	.	.	.	2d\	-a	1g\	pro	2b/	-a
*	*	*	*	*	*	*	*custos:e	*	*	*
!	!	!	!	!	!	!	!LO:LB:g=original	!	!	!
=59-	=59-	=59-	=59-	=59-	=59-	=59-	=59-	=59-	=59-	=59-
2r	.	2r	.	0ryy	1c	eſt	.	.	1cc	eſt
2c\	pro	2g\	pro	.	.	.	2e/	mun-	.	.
2A\	mun-	2a\	mun-	.	1r	.	2c/	-di	2r	.
*custos:C	*	*	*	*	*	*ij	*	*	*	*Xij
2F/	-di	2a\	-di	.	.	.	2f\	vi-	1cc\	ca-
=60-	=60-	=60-	=60-	=60-	=60-	=60-	=60-	=60-	=60-	=60-
1c	vi-	2.g\	vi-	0ryy	2r	.	1e	-ta	.	.
.	.	.	.	.	1c	ca-	.	.	2cc\	-ro
.	.	4f\	.	.	.	.	.	.	.	.
1C	-ta	4e\	.	.	.	.	2r	.	4ee\	me-
.	.	4d\	.	.	.	.	.	.	4ff\	.
.	.	2e\	.	.	2c/	-ro	2g\	ca-	4gg\	.
.	.	.	.	.	.	.	.	.	4ee\	.
=61-	=61-	=61-	=61-	=61-	=61-	=61-	=61-	=61-	=61-	=61-
0r	.	1c	-ta	0ryy	2F/	me-	2a\	-ro	4ff\	.
.	.	.	.	.	.	.	.	.	4ee\	.
.	.	.	.	.	2A/	-a	1cc	me-	4ee\	.
.	.	.	.	.	.	.	.	.	8dd\	.
.	.	.	.	.	.	.	.	.	8cc\	.
*	*	*custos:g	*ij	*	*	*	*	*	*	*
!	!	!LO:LB:g=original	!	!	!	!	!	!	!	!
.	.	2r	.	.	1G	eſt	.	.	2dd\	.
.	.	1g\	pro	.	.	.	2b\	-a	2dd\	-a
*	*	*	*	*	*	*Xij	*	*	*	*
=62-	=62-	=62-	=62-	=62-	=62-	=62-	=62-	=62-	=62-	=62-
1r	.	.	.	0ryy	1c	pro	2cc\	eſt	1cc	eſt
.	.	2e\	mun-	.	.	.	2g\	pro	.	.
2r	.	2d\	-di	.	2.B/	mun-	2g\	mun-	2r	.
1G\	ca-	1g\	vi-	.	.	.	2d/	-di	2dd\	pro
.	.	.	.	.	4G/	-di	.	.	.	.
=63-	=63-	=63-	=63-	=63-	=63-	=63-	=63-	=63-	=63-	=63-
.	.	.	.	0ryy	1d	vi-	1g	vi-	2.b/	mun-
2G\	-ro	2d\	-ta	.	.	.	.	.	.	.
.	.	.	.	.	.	.	.	.	4g/	-di
*	*	*	*Xij	*	*	*	*	*	*custos:dd	*
!	!	!	!	!	!	!	!	!	!LO:LB:g=original	!
*	*	*	*	*	*	*	*	*	*lig	*
4B\	me-	2r	.	.	1G	-ta	1g	-ta	1dd	vi-
4c\	.	.	.	.	.	.	.	.	.	.
4d\	.	2d\	ca-	.	.	.	.	.	.	.
4B\	.	.	.	.	.	.	.	.	.	.
=64-	=64-	=64-	=64-	=64-	=64-	=64-	=64-	=64-	=64-	=64-
*	*	*	*	*	*	*	*	*	*col	*
4c\	.	2e\	-ro	0ryy	0r	.	0r	.	2.g/	.
4B\	.	.	.	.	.	.	.	.	.	.
4B\	.	1g	me-	.	.	.	.	.	.	.
*	*	*	*	*	*	*	*	*	*Xlig	*
8A\	.	.	.	.	.	.	.	.	8a/	.
8G\	.	.	.	.	.	.	.	.	8b\	.
*	*	*	*	*	*	*	*	*ij	*Xcol	*
2A\	.	.	.	.	.	.	.	.	1cc	.
2A\	-a	2f\	-a	.	.	.	.	.	.	.
=65-	=65-	=65-	=65-	=65-	=65-	=65-	=65-	=65-	=65-	=65-
1G	eſt	0g	eſt	0ryy	2r	.	1r	.	1b	-ta
.	.	.	.	.	2d\	pro	.	.	.	.
2r	.	.	.	.	2e\	mun-	2r	.	1r	.
2c\	pro	.	.	.	2e\	-di	1cc\	pro	.	.
=66-	=66-	=66-	=66-	=66-	=66-	=66-	=66-	=66-	=66-	=66-
2A\	mun-	1r	.	0ryy	2.f\	vi-	.	.	0r	.
2F/	-di	.	.	.	.	.	2a\	mun-	.	.
.	.	.	.	.	4e\	.	.	.	.	.
*lig	*	*	*	*	*	*	*	*	*	*
1B	vi-	2r	.	.	4d\	.	2f\	-di	.	.
.	.	.	.	.	4c/	.	.	.	.	.
.	.	2d\	pro	.	2.d\	.	2g\	vi-	.	.
=67-	=67-	=67-	=67-	=67-	=67-	=67-	=67-	=67-	=67-	=67-
1A	.	2e\	mun-	0ryy	.	.	1a	-ta	1r	.
.	.	.	.	.	4c/	.	.	.	.	.
.	.	2f\	-di	.	1c	.	.	.	.	.
*Xlig	*	*	*	*	*	*	*	*Xij	*	*
*lig	*	*	*	*	*	*	*	*	*	*ij
1G	-ta	1g	vi-	.	.	.	1r	.	1dd	pro
.	.	.	.	.	2B/	.	.	.	.	.
*	*	*	*	*	*custos:c	*	*	*	*	*
!	!	!	!	!	!LO:LB:g=original	!	!	!	!	!
=68-	=68-	=68-	=68-	=68-	=68-	=68-	=68-	=68-	=68-	=68-
1C	.	1g	-ta	0ryy	1c	-ta	2r	.	2ee\	mun-
.	.	.	.	.	.	.	2cc\	pro	2ee\	-di
*Xlig	*ij	*	*	*	*	*ij	*	*	*	*
1r	.	1r	.	.	1d	pro	2a\	mun-	2.ff\	vi-
.	.	.	.	.	.	.	2f\	-di	.	.
.	.	.	.	.	.	.	.	.	4ee\	.
*custos:G	*	*	*	*	*	*	*	*	*	*
!LO:LB:g=original	!	!	!	!	!	!	!	!	!	!
=69-	=69-	=69-	=69-	=69-	=69-	=69-	=69-	=69-	=69-	=69-
1G	pro	0r	.	0ryy	1B	mun-	2r	.	4dd\	.
.	.	.	.	.	.	.	.	.	4cc\	.
.	.	.	.	.	.	.	1g	pro	2.dd\	.
2E/	mun-	.	.	.	2G/	-di	.	.	.	.
.	.	.	.	.	.	.	.	.	4cc\	.
2C/	-di-	.	.	.	2.g\	vi-	2e/	mun-	1cc\	.
*	*	*	*	*	*	*	*custos:d	*	*	*
!	!	!	!	!	!	!	!LO:LB:g=original	!	!	!
=70-	=70-	=70-	=70-	=70-	=70-	=70-	=70-	=70-	=70-	=70-
1G	-vi-	1d	pro	0ryy	.	.	2d/	-di	.	.
.	.	.	.	.	8f\	.	.	.	.	.
.	.	.	.	.	8e\	.	.	.	.	.
.	.	.	.	.	2d\	.	2g\	vi-	2b/	.
1C	-ta	2e\	mun-	.	2c/	-ta	2g\	-ta	0cc	-ta
*	*	*	*	*	*	*Xij	*	*	*	*
.	.	2e\	-di	.	2c/	pro	2g\	pro	.	.
=71-	=71-	=71-	=71-	=71-	=71-	=71-	=71-	=71-	=71-	=71-
00r	.	2.f\	vi-	0ryy	2A/	mun-	2a\	mun-	.	.
.	.	.	.	.	2F/	-di	2.cc\	-di	.	.
.	.	4e\	.	.	.	.	.	.	.	.
*	*	*	*	*	*lig	*	*	*	*	*Xij
.	.	4d\	.	.	1G	vi-	.	.	2r	.
.	.	4c/	.	.	.	.	8b\	.	.	.
.	.	.	.	.	.	.	8a\	.	.	.
*	*	*custos:d	*	*	*	*	*	*	*	*
!	!	!LO:LB:g=original	!	!	!	!	!	!	!	!
.	.	2.d\	.	.	.	.	2b\	.	2gg\	pro
=72-	=72-	=72-	=72-	=72-	=72-	=72-	=72-	=72-	=72-	=72-
.	.	.	.	0ryy	1A	.	2a\	vi-	2ee\	mun-
.	.	4c/	.	.	.	.	.	.	.	.
.	.	1c	.	.	.	.	2e/	.	2cc\	-di
*	*	*	*	*	*Xlig	*	*	*	*lig	*
.	.	.	.	.	1G	-ta	2g\	-ta	1dd	vi-
*	*	*	*	*	*	*	*	*ij	*	*
.	.	2B/	.	.	.	.	2g\	pro	.	.
=73-	=73-	=73-	=73-	=73-	=73-	=73-	=73-	=73-	=73-	=73-
*	*	*	*	*	*	*	*	*	*col	*
2r	.	2c/	-ta	0ryy	1r	.	2e/	mun-	2.ee\	.
*	*	*	*ij	*	*	*	*	*	*	*
2c\	pro	2e\	pro	.	.	.	1c	-di	.	.
*	*	*	*	*	*	*	*	*	*Xlig	*
.	.	.	.	.	.	.	.	.	4dd\	.
*	*	*	*	*	*	*	*	*	*Xcol	*
2A\	mun-	2e\	mun-	.	2r	.	.	.	4cc\	.
.	.	.	.	.	.	.	.	.	4b/	.
*	*	*	*	*	*	*	*	*	*custos:a	*
!	!	!	!	!	!	!	!	!	!LO:PB:g=original	!
2F/	-di	2A/	-di	.	2c/	pro	2f\	vi-	2.a/	.
=74-	=74-	=74-	=74-	=74-	=74-	=74-	=74-	=74-	=74-	=74-
1G	vi-	1B	vi-	0ryy	2B/	mun-	1d	-ta	.	.
.	.	.	.	.	.	.	.	.	4g/	.
.	.	.	.	.	2G/	-di	.	.	1g	.
1D	-ta	2d\	-ta	.	1A	vi-	2r	.	.	.
*	*Xij	*	*Xij	*	*	*	*	*	*	*
.	.	1d\	pro	.	.	.	2a\	pro	2f#X/	.
=75-	=75-	=75-	=75-	=75-	=75-	=75-	=75-	=75-	=75-	=75-
2r	.	.	.	0ryy	1G	-ta	2b\	mun-	2g/	-ta
*	*	*	*	*	*	*	*	*	*	*ij
2G\	pro	2B/	mun-	.	.	.	2b\	-di	2dd\	pro
2E/	mun-	1G	-di	.	1r	.	2.cc\	vi-	2ee\	mun-
2C/	-di	.	.	.	.	.	.	.	2ee\	-di
.	.	.	.	.	.	.	4b\	.	.	.
=76-	=76-	=76-	=76-	=76-	=76-	=76-	=76-	=76-	=76-	=76-
*lig	*	*	*	*	*	*ij	*	*	*	*
1F	vi-	1r	.	0ryy	2r	.	4a\	.	2.ff\	vi-
.	.	.	.	.	.	.	4g\	.	.	.
.	.	.	.	.	2c/	pro	2.a\	.	.	.
.	.	.	.	.	.	.	.	.	4ee\	.
1G	.	2r	.	.	2B/	mun-	.	.	4dd\	.
.	.	.	.	.	.	.	4g\	.	4cc\	.
.	.	2g\	pro	.	2G/	-di	1g\	.	2.dd\	.
*Xlig	*	*	*	*	*	*	*	*	*	*
=77-	=77-	=77-	=77-	=77-	=77-	=77-	=77-	=77-	=77-	=77-
*lig	*	*	*	*	*lig	*	*	*	*	*
1A	.	2e\	mun-	0ryy	1c	vi-	.	.	.	.
.	.	.	.	.	.	.	.	.	4cc\	.
.	.	2c/	-di	.	.	.	2f\	.	1cc	.
!	!	!	!	!	!	!	!LO:N:vis=00	!	!	!
1G	.	2r	.	.	1d	.	0.g	-ta	.	.
.	.	2g\	vi-	.	.	.	.	.	2b/	.
*Xlig	*	*	*	*	*Xlig	*	*	*	*	*
=78-	=78-	=78-	=78-	=78-	=78-	=78-	=78-	=78-	=78-	=78-
!LO:N:vis=00	!	!LO:N:vis=00	!	!LO:N:vis=00	!LO:N:vis=00	!	!	!	!LO:N:vis=00	!
0C	-ta.	0e	-ta.	0ryy	0c	-ta	.	.	0cc	-ta
==	==	==	==	==	==	==	==	==	==	==
*-	*-	*-	*-	*-	*-	*-	*-	*-	*-	*-
!!!system-decoration: [(s1,s2,s3,s4,s5,s6)]
!!!ENC: Mateusz Solarz
!!!END: 2022-07-12
!!!ENC: Natalia Wrzos
!!!END: 2022-08-05
!!!YEC: Copyright 2022 Narodowy Instytut Fryderyka Chopina (https://polishscores.org)
!!!YEM: License CC-BY-4.0 (https://creativecommons.org/licenses/by/4.0)
